images/icons/logo-header.svg

<svg viewBox="0 0 137 22" fill="#1C1C1C" xmlns="http://www.w3.org/2000/svg">
<path d="M119.711 3.99801H124.151V8.12601L123.983 8.70201V12.254L124.151 13.31V21.638H119.711V3.99801ZM122.687 10.838C122.927 9.36601 123.383 8.09401 124.055 7.02201C124.727 5.95001 125.575 5.11801 126.599 4.52601C127.639 3.91801 128.791 3.61401 130.055 3.61401C131.399 3.61401 132.575 3.91801 133.583 4.52601C134.607 5.13401 135.407 5.98201 135.983 7.07001C136.559 8.14201 136.847 9.39801 136.847 10.838C136.847 12.278 136.559 13.542 135.983 14.63C135.407 15.702 134.607 16.542 133.583 17.15C132.575 17.758 131.399 18.062 130.055 18.062C128.775 18.062 127.623 17.766 126.599 17.174C125.591 16.566 124.751 15.726 124.079 14.654C123.407 13.566 122.943 12.294 122.687 10.838ZM132.335 10.838C132.335 10.102 132.183 9.45401 131.879 8.89401C131.575 8.31801 131.151 7.87001 130.607 7.55001C130.079 7.21401 129.471 7.04601 128.783 7.04601C128.079 7.04601 127.407 7.21401 126.767 7.55001C126.127 7.87001 125.567 8.31801 125.087 8.89401C124.623 9.45401 124.263 10.102 124.007 10.838C124.263 11.574 124.623 12.23 125.087 12.806C125.567 13.366 126.127 13.814 126.767 14.15C127.407 14.47 128.079 14.63 128.783 14.63C129.471 14.63 130.079 14.47 130.607 14.15C131.151 13.814 131.575 13.366 131.879 12.806C132.183 12.23 132.335 11.574 132.335 10.838Z"/>
<path d="M100.328 3.99801H104.768V8.12601L104.6 8.70201V12.254L104.768 13.31V21.638H100.328V3.99801ZM103.304 10.838C103.544 9.36601 104 8.09401 104.672 7.02201C105.344 5.95001 106.192 5.11801 107.216 4.52601C108.256 3.91801 109.408 3.61401 110.672 3.61401C112.016 3.61401 113.192 3.91801 114.2 4.52601C115.224 5.13401 116.024 5.98201 116.6 7.07001C117.176 8.14201 117.464 9.39801 117.464 10.838C117.464 12.278 117.176 13.542 116.6 14.63C116.024 15.702 115.224 16.542 114.2 17.15C113.192 17.758 112.016 18.062 110.672 18.062C109.392 18.062 108.24 17.766 107.216 17.174C106.208 16.566 105.368 15.726 104.696 14.654C104.024 13.566 103.56 12.294 103.304 10.838ZM112.952 10.838C112.952 10.102 112.8 9.45401 112.496 8.89401C112.192 8.31801 111.768 7.87001 111.224 7.55001C110.696 7.21401 110.088 7.04601 109.4 7.04601C108.696 7.04601 108.024 7.21401 107.384 7.55001C106.744 7.87001 106.184 8.31801 105.704 8.89401C105.24 9.45401 104.88 10.102 104.624 10.838C104.88 11.574 105.24 12.23 105.704 12.806C106.184 13.366 106.744 13.814 107.384 14.15C108.024 14.47 108.696 14.63 109.4 14.63C110.088 14.63 110.696 14.47 111.224 14.15C111.768 13.814 112.192 13.366 112.496 12.806C112.8 12.23 112.952 11.574 112.952 10.838Z"/>
<path d="M93.1659 17.678L92.5659 12.71L93.2139 10.838L92.5659 8.99001L93.1659 3.99801H97.7979L96.9579 10.838L97.7979 17.678H93.1659ZM94.2699 10.838C94.0299 12.294 93.5739 13.566 92.9019 14.654C92.2299 15.726 91.3819 16.566 90.3579 17.174C89.3339 17.766 88.1819 18.062 86.9019 18.062C85.5579 18.062 84.3739 17.758 83.3499 17.15C82.3419 16.542 81.5499 15.702 80.9739 14.63C80.3979 13.542 80.1099 12.278 80.1099 10.838C80.1099 9.39801 80.3979 8.14201 80.9739 7.07001C81.5499 5.98201 82.3419 5.13401 83.3499 4.52601C84.3739 3.91801 85.5579 3.61401 86.9019 3.61401C88.1819 3.61401 89.3339 3.91801 90.3579 4.52601C91.3819 5.11801 92.2299 5.95001 92.9019 7.02201C93.5899 8.09401 94.0459 9.36601 94.2699 10.838ZM84.6219 10.838C84.6219 11.574 84.7739 12.23 85.0779 12.806C85.3819 13.366 85.7979 13.814 86.3259 14.15C86.8699 14.47 87.4939 14.63 88.1979 14.63C88.9019 14.63 89.5659 14.47 90.1899 14.15C90.8299 13.814 91.3899 13.366 91.8699 12.806C92.3499 12.23 92.7099 11.574 92.9499 10.838C92.7099 10.102 92.3499 9.45401 91.8699 8.89401C91.3899 8.31801 90.8299 7.87001 90.1899 7.55001C89.5659 7.21401 88.9019 7.04601 88.1979 7.04601C87.4939 7.04601 86.8699 7.21401 86.3259 7.55001C85.7979 7.87001 85.3819 8.31801 85.0779 8.89401C84.7739 9.45401 84.6219 10.102 84.6219 10.838Z"/>
<path d="M69.8582 18.062C68.1302 18.062 66.6182 17.758 65.3222 17.15C64.0262 16.542 63.0182 15.694 62.2982 14.606C61.5782 13.518 61.2182 12.262 61.2182 10.838C61.2182 9.39801 61.5782 8.14201 62.2982 7.07001C63.0182 5.98201 64.0262 5.13401 65.3222 4.52601C66.6342 3.91801 68.1462 3.61401 69.8582 3.61401C71.5862 3.61401 73.0982 3.91801 74.3942 4.52601C75.7062 5.13401 76.7222 5.98201 77.4422 7.07001C78.1622 8.14201 78.5222 9.39801 78.5222 10.838C78.5222 12.278 78.1622 13.542 77.4422 14.63C76.7222 15.702 75.7062 16.542 74.3942 17.15C73.0982 17.758 71.5862 18.062 69.8582 18.062ZM69.8582 14.702C70.7382 14.702 71.4822 14.55 72.0902 14.246C72.7142 13.926 73.1862 13.478 73.5062 12.902C73.8422 12.326 74.0102 11.638 74.0102 10.838C74.0102 10.038 73.8422 9.35001 73.5062 8.77401C73.1862 8.19801 72.7142 7.75801 72.0902 7.45401C71.4822 7.13401 70.7382 6.97401 69.8582 6.97401C69.0102 6.97401 68.2742 7.13401 67.6502 7.45401C67.0262 7.75801 66.5462 8.19801 66.2102 8.77401C65.8742 9.35001 65.7062 10.038 65.7062 10.838C65.7062 11.638 65.8742 12.326 66.2102 12.902C66.5462 13.478 67.0262 13.926 67.6502 14.246C68.2742 14.55 69.0102 14.702 69.8582 14.702Z"/>
<path d="M46.8358 7.31001V5.36601L49.6678 4.33401L51.5878 0.350006H54.1318V3.99801H60.0358V7.31001H54.1318V11.822C54.1318 12.846 54.3398 13.566 54.7558 13.982C55.1718 14.382 55.9158 14.582 56.9878 14.582C57.6758 14.582 58.2758 14.526 58.7878 14.414C59.3158 14.286 59.8118 14.118 60.2758 13.91V17.294C59.7958 17.486 59.1638 17.662 58.3798 17.822C57.6118 17.982 56.8118 18.062 55.9798 18.062C54.5238 18.062 53.3238 17.83 52.3798 17.366C51.4518 16.902 50.7638 16.254 50.3158 15.422C49.8838 14.574 49.6678 13.582 49.6678 12.446V7.31001H46.8358Z"/>
<path d="M46.1263 13.286C46.1263 14.31 45.8223 15.182 45.2143 15.902C44.6223 16.606 43.7503 17.142 42.5983 17.51C41.4463 17.878 40.0463 18.062 38.3983 18.062C36.7183 18.062 35.2463 17.854 33.9823 17.438C32.7183 17.022 31.7343 16.438 31.0303 15.686C30.3263 14.934 29.9503 14.062 29.9023 13.07H34.4383C34.5343 13.47 34.7583 13.822 35.1103 14.126C35.4783 14.43 35.9503 14.662 36.5263 14.822C37.1023 14.966 37.7823 15.038 38.5663 15.038C39.6223 15.038 40.4223 14.926 40.9663 14.702C41.5103 14.478 41.7823 14.142 41.7823 13.694C41.7823 13.358 41.5823 13.102 41.1823 12.926C40.7983 12.75 40.1023 12.622 39.0943 12.542L36.5983 12.35C35.0303 12.238 33.7823 11.99 32.8543 11.606C31.9263 11.222 31.2623 10.734 30.8623 10.142C30.4783 9.55002 30.2863 8.88601 30.2863 8.15001C30.2863 7.14201 30.5983 6.30201 31.2223 5.63001C31.8623 4.95801 32.7423 4.45401 33.8623 4.11802C34.9823 3.78201 36.2943 3.61401 37.7983 3.61401C39.3023 3.61401 40.6383 3.81401 41.8063 4.21401C42.9903 4.61401 43.9343 5.16601 44.6383 5.87001C45.3583 6.57401 45.7663 7.39801 45.8623 8.34201H41.3263C41.2623 8.02201 41.0863 7.72601 40.7983 7.45401C40.5263 7.18201 40.1263 6.96601 39.5983 6.80602C39.0863 6.63001 38.4143 6.54201 37.5823 6.54201C36.6383 6.54201 35.9183 6.64601 35.4223 6.85401C34.9263 7.06201 34.6783 7.36601 34.6783 7.76601C34.6783 8.07001 34.8303 8.31001 35.1343 8.48601C35.4383 8.66201 36.0143 8.79001 36.8623 8.87001L40.1023 9.11001C41.6383 9.23801 42.8383 9.48602 43.7023 9.85402C44.5823 10.206 45.2063 10.67 45.5743 11.246C45.9423 11.822 46.1263 12.502 46.1263 13.286Z"/>
<path d="M21.1054 18.062C19.4734 18.062 18.0094 17.758 16.7134 17.15C15.4334 16.542 14.4254 15.694 13.6894 14.606C12.9534 13.518 12.5854 12.246 12.5854 10.79C12.5854 9.36601 12.9374 8.11801 13.6414 7.04601C14.3454 5.97401 15.3134 5.13401 16.5454 4.52601C17.7934 3.91801 19.2014 3.61401 20.7694 3.61401C22.3694 3.61401 23.7454 3.96601 24.8974 4.67001C26.0494 5.37401 26.9374 6.36601 27.5614 7.64601C28.1854 8.92601 28.4974 10.43 28.4974 12.158H16.1614V9.35001H26.0494L24.4414 10.358C24.3934 9.60601 24.2094 8.97401 23.8894 8.46202C23.5854 7.93401 23.1774 7.53401 22.6654 7.26201C22.1534 6.97401 21.5454 6.83001 20.8414 6.83001C20.0734 6.83001 19.4094 6.98201 18.8494 7.28601C18.2894 7.59001 17.8494 8.01401 17.5294 8.55801C17.2254 9.10201 17.0734 9.73401 17.0734 10.454C17.0734 11.366 17.2734 12.142 17.6734 12.782C18.0894 13.422 18.6814 13.91 19.4494 14.246C20.2334 14.582 21.1854 14.75 22.3054 14.75C23.3294 14.75 24.3534 14.614 25.3774 14.342C26.4014 14.054 27.3214 13.654 28.1374 13.142V16.046C27.2094 16.686 26.1454 17.182 24.9454 17.534C23.7614 17.886 22.4814 18.062 21.1054 18.062Z"/>
<path d="M0 3.99801H4.512L5.328 8.91801V17.678H0.864V8.55801L0 3.99801ZM11.856 3.80602V7.64601C11.424 7.55001 10.992 7.47801 10.56 7.43001C10.144 7.38201 9.76 7.35802 9.408 7.35802C8.64 7.35802 7.944 7.51801 7.32 7.83801C6.712 8.14201 6.224 8.63001 5.856 9.30201C5.504 9.97401 5.328 10.846 5.328 11.918L4.44 10.814C4.552 9.83801 4.736 8.91801 4.992 8.05401C5.248 7.19001 5.6 6.43001 6.048 5.77401C6.496 5.10201 7.048 4.57401 7.704 4.19001C8.376 3.80601 9.184 3.61401 10.128 3.61401C10.4 3.61401 10.688 3.63001 10.992 3.66201C11.296 3.69401 11.584 3.74201 11.856 3.80602Z"/>
</svg>

<svg xmlns="http://www.w3.org/2000/svg" fill="#1C1C1C" viewBox="0 0 137 22"><path d="M119.711 3.998h4.44v4.128l-.168.576v3.552l.168 1.056v8.328h-4.44zm2.976 6.84q.36-2.208 1.368-3.816t2.544-2.496q1.56-.912 3.456-.912 2.016 0 3.528.912 1.536.912 2.4 2.544.864 1.608.864 3.768t-.864 3.792a6.4 6.4 0 0 1-2.4 2.52q-1.512.912-3.528.912-1.92 0-3.456-.888-1.512-.912-2.52-2.52-1.008-1.632-1.392-3.816m9.648 0q0-1.104-.456-1.944a3.3 3.3 0 0 0-1.272-1.344q-.792-.504-1.824-.504-1.056 0-2.016.504-.96.48-1.68 1.344a6.2 6.2 0 0 0-1.08 1.944 6.5 6.5 0 0 0 1.08 1.968q.72.84 1.68 1.344.96.48 2.016.48 1.032 0 1.824-.48a3.54 3.54 0 0 0 1.272-1.344q.456-.864.456-1.968M100.328 3.998h4.44v4.128l-.168.576v3.552l.168 1.056v8.328h-4.44zm2.976 6.84q.36-2.208 1.368-3.816t2.544-2.496q1.56-.912 3.456-.912 2.016 0 3.528.912 1.536.912 2.4 2.544.864 1.608.864 3.768t-.864 3.792a6.4 6.4 0 0 1-2.4 2.52q-1.512.912-3.528.912-1.92 0-3.456-.888-1.512-.912-2.52-2.52-1.008-1.632-1.392-3.816m9.648 0q0-1.104-.456-1.944a3.3 3.3 0 0 0-1.272-1.344q-.792-.504-1.824-.504-1.056 0-2.016.504-.96.48-1.68 1.344a6.2 6.2 0 0 0-1.08 1.944 6.5 6.5 0 0 0 1.08 1.968q.72.84 1.68 1.344.96.48 2.016.48 1.032 0 1.824-.48a3.54 3.54 0 0 0 1.272-1.344q.456-.864.456-1.968M93.166 17.678l-.6-4.968.648-1.872-.648-1.848.6-4.992h4.632l-.84 6.84.84 6.84zm1.104-6.84q-.36 2.184-1.368 3.816-1.008 1.608-2.544 2.52-1.536.888-3.456.888-2.016 0-3.552-.912a6.44 6.44 0 0 1-2.376-2.52q-.864-1.632-.864-3.792t.864-3.768q.864-1.632 2.376-2.544 1.536-.912 3.552-.912 1.92 0 3.456.912 1.536.888 2.544 2.496 1.032 1.608 1.368 3.816m-9.648 0q0 1.104.456 1.968.456.84 1.248 1.344.816.48 1.872.48t1.992-.48q.96-.504 1.68-1.344.72-.864 1.08-1.968a5.6 5.6 0 0 0-1.08-1.944 5.2 5.2 0 0 0-1.68-1.344 4.14 4.14 0 0 0-1.992-.504q-1.056 0-1.872.504-.792.48-1.248 1.344-.456.84-.456 1.944M69.858 18.062q-2.592 0-4.536-.912t-3.024-2.544-1.08-3.768q0-2.16 1.08-3.768 1.08-1.632 3.024-2.544 1.968-.912 4.536-.912 2.592 0 4.536.912 1.968.912 3.048 2.544 1.08 1.608 1.08 3.768t-1.08 3.792q-1.08 1.608-3.048 2.52-1.944.912-4.536.912m0-3.36q1.32 0 2.232-.456a3.3 3.3 0 0 0 1.416-1.344q.504-.864.504-2.064t-.504-2.064a3.15 3.15 0 0 0-1.416-1.32q-.912-.48-2.232-.48-1.272 0-2.208.48a3.3 3.3 0 0 0-1.44 1.32q-.504.864-.504 2.064t.504 2.064a3.44 3.44 0 0 0 1.44 1.344q.936.456 2.208.456M46.836 7.31V5.366l2.832-1.032L51.588.35h2.544v3.648h5.904V7.31h-5.904v4.512q0 1.536.624 2.16.624.6 2.232.6 1.032 0 1.8-.168a8.6 8.6 0 0 0 1.488-.504v3.384q-.72.288-1.896.528-1.152.24-2.4.24-2.184 0-3.6-.696-1.392-.696-2.064-1.944-.648-1.272-.648-2.976V7.31zM46.126 13.286q0 1.536-.912 2.616-.888 1.056-2.616 1.608t-4.2.552q-2.52 0-4.416-.624t-2.952-1.752-1.128-2.616h4.536q.144.6.672 1.056.552.456 1.416.696.864.216 2.04.216 1.584 0 2.4-.336t.816-1.008q0-.504-.6-.768-.576-.264-2.088-.384l-2.496-.192q-2.352-.168-3.744-.744t-1.992-1.464a3.6 3.6 0 0 1-.576-1.992q0-1.512.936-2.52.96-1.008 2.64-1.512t3.936-.504 4.008.6q1.776.6 2.832 1.656 1.08 1.056 1.224 2.472h-4.536q-.096-.48-.528-.888-.408-.408-1.2-.648-.768-.264-2.016-.264-1.416 0-2.16.312t-.744.912q0 .456.456.72t1.728.384l3.24.24q2.304.192 3.6.744 1.32.528 1.872 1.392t.552 2.04M21.105 18.062q-2.448 0-4.392-.912-1.92-.912-3.024-2.544t-1.104-3.816q0-2.136 1.056-3.744t2.904-2.52q1.872-.912 4.224-.912 2.4 0 4.128 1.056t2.664 2.976.936 4.512H16.161V9.35h9.888l-1.608 1.008q-.072-1.128-.552-1.896a3.04 3.04 0 0 0-1.224-1.2q-.768-.432-1.824-.432-1.152 0-1.992.456t-1.32 1.272q-.456.816-.456 1.896 0 1.368.6 2.328.624.96 1.776 1.464 1.176.504 2.856.504 1.536 0 3.072-.408a10.5 10.5 0 0 0 2.76-1.2v2.904q-1.392.96-3.192 1.488-1.776.528-3.84.528M0 3.998h4.512l.816 4.92v8.76H.864v-9.12zm11.856-.192v3.84a12 12 0 0 0-2.448-.288q-1.152 0-2.088.48-.912.456-1.464 1.464-.528 1.008-.528 2.616l-.888-1.104q.168-1.464.552-2.76a8.1 8.1 0 0 1 1.056-2.28Q6.72 4.766 7.704 4.19q1.008-.576 2.424-.576.408 0 .864.048t.864.144"/></svg>
